public/sslbg.svg

<svg xmlns="http://www.w3.org/2000/svg" width="1440" height="986" fill="none" viewBox="0 0 1440 986"><path fill="#f2f5fc" d="M710.348 294.702 569.102 213.29l141.242-81.409 141.247 81.411z"/><path fill="url(#a)" d="M710.344 978.18V294.702l141.245-81.41V978.18z"/><path fill="url(#b)" d="M710.347 978.18V294.702l-141.245-81.41V978.18z"/><g opacity=".4"><path fill="#f2f5fc" d="m1251.15 275.491-70.62-40.706 70.62-40.705 70.63 40.705z"/><path fill="url(#c)" d="M1251.16 805.89V275.489l70.62-40.704v571.106z"/><path fill="url(#d)" d="M1251.15 805.891V275.49l-70.62-40.704v571.106z"/></g><g opacity=".2"><path fill="#f9fafc" d="m1369.38 96.9-70.62-40.707 70.62-40.705L1440 56.194z"/><path fill="url(#e)" d="M1369.38 627.297V96.9L1440 56.193v571.103z"/><path fill="url(#f)" d="M1369.38 627.297V96.899l-70.62-40.705v571.103z"/></g><g opacity=".4"><path fill="#f2f5fc" d="m188.845 260.001 70.623-40.706-70.622-40.705-70.627 40.706z"/><path fill="url(#g)" d="M188.845 790.402V260.001l-70.626-40.705v571.106z"/><path fill="url(#h)" d="M188.844 790.401V260l70.622-40.704v571.106z"/></g><g opacity=".2"><path fill="#f2f5fc" d="m70.621 81.41 70.623-40.706L70.624 0 0 40.706z"/><path fill="url(#i)" d="M70.623 611.808V81.41L0 40.706v571.102z"/><path fill="url(#j)" d="M70.625 611.808V81.41l70.623-40.704v571.102z"/></g><path fill="#f2f5fc" d="m1007.46 417.985-141.249-81.411 141.239-81.409 141.25 81.411z"/><path fill="url(#k)" d="M1007.45 904.611V417.985l141.25-81.408v568.034z"/><path fill="url(#l)" d="M1007.46 904.611V417.985l-141.249-81.408v568.034z"/><path fill="#f2f5fc" d="M413.245 417.985 272 336.574l141.245-81.409 141.246 81.411z"/><path fill="url(#m)" d="M413.242 986.001V417.986l141.245-81.409v649.424z"/><path fill="url(#n)" d="M413.245 904.611V417.985L272 336.577v568.034z"/><path fill="url(#o)" fill-rule="evenodd" d="m758.335 166.427-94.545-56.988c-1.208-.72-2.204-.331-2.226.889l-1.474 79.812c.09 1.456.88 2.75 2.145 3.529l94.545 56.988c1.209.662 2.205.273 2.227-.948l1.474-79.812c-.091-1.397-.88-2.749-2.146-3.47" clip-rule="evenodd"/><path stroke="#fff" stroke-linecap="round" stroke-linejoin="round" stroke-width="4" d="m715.332 174.181 11.31 20.445-11.397 6.302M695.275 186.661l-11.249-20.618 11.341-6.362M701.432 161.713l7.441 37.935"/><path fill="#fff" fill-rule="evenodd" d="M666.955 114.382a2.94 2.94 0 0 1 1.238 2.233.823.823 0 0 1-.657.918.66.66 0 0 1-.636-.186c-.747-.479-1.196-1.36-1.238-2.233a.823.823 0 0 1 .657-.918c.175-.055.464.067.636.186m3.622 2.219a2.93 2.93 0 0 1 1.238 2.232c.051.408-.189.811-.598.92q-.35.08-.694-.188c-.748-.479-1.196-1.359-1.239-2.232a.824.824 0 0 1 .657-.918c.176-.055.465.008.636.186m3.624 2.16a2.94 2.94 0 0 1 1.238 2.233c.05.408-.19.81-.657.918a.66.66 0 0 1-.636-.186c-.747-.479-1.196-1.36-1.238-2.233a.823.823 0 0 1 .657-.918c.175-.055.465.008.636.186" clip-rule="evenodd"/><defs><linearGradient id="a" x1="780.966" x2="780.966" y1="970.531" y2="503.95" gradientUnits="userSpaceOnUse"><stop stop-color="#fff" stop-opacity="0"/><stop offset="1" stop-color="#fff"/></linearGradient><linearGradient id="b" x1="639.724" x2="639.724" y1="1050.08" y2="188.816" gradientUnits="userSpaceOnUse"><stop stop-color="#fff" stop-opacity="0"/><stop offset="1" stop-color="#e0e7fd"/></linearGradient><linearGradient id="c" x1="1286.47" x2="1286.47" y1="816.742" y2="350.72" gradientUnits="userSpaceOnUse"><stop stop-color="#fff" stop-opacity="0"/><stop offset="1" stop-color="#fff"/></linearGradient><linearGradient id="d" x1="1215.84" x2="1215.84" y1="896.126" y2="34.899" gradientUnits="userSpaceOnUse"><stop stop-color="#fff" stop-opacity="0"/><stop offset="1" stop-color="#e0e7fd"/></linearGradient><linearGradient id="e" x1="1404.69" x2="1404.69" y1="816.332" y2="350.312" gradientUnits="userSpaceOnUse"><stop stop-color="#fff" stop-opacity="0"/><stop offset="1" stop-color="#fff"/></linearGradient><linearGradient id="f" x1="1334.07" x2="1334.07" y1="896.286" y2="35.063" gradientUnits="userSpaceOnUse"><stop stop-color="#fff" stop-opacity="0"/><stop offset="1" stop-color="#e0e7fd"/></linearGradient><linearGradient id="g" x1="153.532" x2="153.532" y1="880.637" y2="19.409" gradientUnits="userSpaceOnUse"><stop stop-color="#fff" stop-opacity="0"/><stop offset="1" stop-color="#e0e7fd"/></linearGradient><linearGradient id="h" x1="224.155" x2="224.155" y1="801.253" y2="335.23" gradientUnits="userSpaceOnUse"><stop stop-color="#fff" stop-opacity="0"/><stop offset="1" stop-color="#fff"/></linearGradient><linearGradient id="i" x1="35.311" x2="35.311" y1="880.797" y2="19.575" gradientUnits="userSpaceOnUse"><stop stop-color="#fff" stop-opacity="0"/><stop offset="1" stop-color="#e0e7fd"/></linearGradient><linearGradient id="j" x1="105.936" x2="105.936" y1="800.843" y2="334.824" gradientUnits="userSpaceOnUse"><stop stop-color="#fff" stop-opacity="0"/><stop offset="1" stop-color="#fff"/></linearGradient><linearGradient id="k" x1="1078.08" x2="1078.08" y1="776.235" y2="310.447" gradientUnits="userSpaceOnUse"><stop stop-color="#fff" stop-opacity="0"/><stop offset="1" stop-color="#fff"/></linearGradient><linearGradient id="l" x1="936.834" x2="936.834" y1="855.76" y2="-5.38" gradientUnits="userSpaceOnUse"><stop stop-color="#fff" stop-opacity="0"/><stop offset="1" stop-color="#e0e7fd"/></linearGradient><linearGradient id="m" x1="483.865" x2="483.865" y1="776.237" y2="309.951" gradientUnits="userSpaceOnUse"><stop stop-color="#fff" stop-opacity="0"/><stop offset="1" stop-color="#fff"/></linearGradient><linearGradient id="n" x1="342.622" x2="342.622" y1="855.76" y2="-5.38" gradientUnits="userSpaceOnUse"><stop stop-color="#fff" stop-opacity="0"/><stop offset="1" stop-color="#e0e7fd"/></linearGradient><linearGradient id="o" x1="760.276" x2="660.293" y1="180.925" y2="179.078" gradientUnits="userSpaceOnUse"><stop offset=".01" stop-color="#3f4b75"/><stop offset="1" stop-color="#636f99"/></linearGradient></defs></svg>

<svg width="1440" height="986" viewBox="0 0 1440 986" fill="none" xmlns="http://www.w3.org/2000/svg">
<path d="M710.348 294.702L569.102 213.29L710.344 131.881L851.591 213.292L710.348 294.702Z" fill="#F2F5FC"/>
<path d="M710.344 978.18V294.702L851.589 213.292V978.18H710.344Z" fill="url(#paint0_linear_9_35921)"/>
<path d="M710.347 978.18V294.702L569.102 213.292V978.18H710.347Z" fill="url(#paint1_linear_9_35921)"/>
<g opacity="0.4">
<path d="M1251.15 275.491L1180.53 234.785L1251.15 194.08L1321.78 234.785L1251.15 275.491Z" fill="#F2F5FC"/>
<path d="M1251.16 805.89V275.489L1321.78 234.785V805.891L1251.16 805.89Z" fill="url(#paint2_linear_9_35921)"/>
<path d="M1251.15 805.891V275.49L1180.53 234.786V805.892L1251.15 805.891Z" fill="url(#paint3_linear_9_35921)"/>
</g>
<g opacity="0.2">
<path d="M1369.38 96.8993L1298.76 56.1934L1369.38 15.4883L1440 56.1942L1369.38 96.8993Z" fill="#F9FAFC"/>
<path d="M1369.38 627.297V96.8995L1440 56.1943V627.297H1369.38Z" fill="url(#paint4_linear_9_35921)"/>
<path d="M1369.38 627.297V96.8992L1298.76 56.1941V627.297H1369.38Z" fill="url(#paint5_linear_9_35921)"/>
</g>
<g opacity="0.4">
<path d="M188.845 260.001L259.468 219.295L188.846 178.59L118.219 219.296L188.845 260.001Z" fill="#F2F5FC"/>
<path d="M188.845 790.402V260.001L118.219 219.296V790.402L188.845 790.402Z" fill="url(#paint6_linear_9_35921)"/>
<path d="M188.844 790.401V260L259.466 219.296V790.402L188.844 790.401Z" fill="url(#paint7_linear_9_35921)"/>
</g>
<g opacity="0.2">
<path d="M70.621 81.4102L141.244 40.7043L70.6234 0L0 40.7059L70.621 81.4102Z" fill="#F2F5FC"/>
<path d="M70.6226 611.808V81.4101L0 40.7058V611.808H70.6226Z" fill="url(#paint8_linear_9_35921)"/>
<path d="M70.625 611.808V81.4104L141.248 40.7061V611.808H70.625Z" fill="url(#paint9_linear_9_35921)"/>
</g>
<path d="M1007.46 417.985L866.211 336.574L1007.45 255.165L1148.7 336.576L1007.46 417.985Z" fill="#F2F5FC"/>
<path d="M1007.45 904.611V417.985L1148.7 336.577V904.611H1007.45Z" fill="url(#paint10_linear_9_35921)"/>
<path d="M1007.46 904.611V417.985L866.211 336.577V904.611H1007.46Z" fill="url(#paint11_linear_9_35921)"/>
<path d="M413.245 417.985L272 336.574L413.245 255.165L554.491 336.576L413.245 417.985Z" fill="#F2F5FC"/>
<path d="M413.242 986.001V417.986L554.487 336.577V986.001H413.242Z" fill="url(#paint12_linear_9_35921)"/>
<path d="M413.245 904.611V417.985L272 336.577V904.611H413.245Z" fill="url(#paint13_linear_9_35921)"/>
<path fill-rule="evenodd" clip-rule="evenodd" d="M758.335 166.427L663.79 109.439C662.582 108.719 661.586 109.108 661.564 110.328L660.09 190.14C660.18 191.596 660.97 192.89 662.235 193.669L756.78 250.657C757.989 251.319 758.985 250.93 759.007 249.709L760.481 169.897C760.39 168.5 759.601 167.148 758.335 166.427Z" fill="url(#paint14_linear_9_35921)"/>
<path d="M715.332 174.181L726.642 194.626L715.245 200.928" stroke="white" stroke-width="4" stroke-linecap="round" stroke-linejoin="round"/>
<path d="M695.275 186.661L684.026 166.043L695.367 159.681" stroke="white" stroke-width="4" stroke-linecap="round" stroke-linejoin="round"/>
<path d="M701.432 161.713L708.873 199.648" stroke="white" stroke-width="4" stroke-linecap="round" stroke-linejoin="round"/>
<path fill-rule="evenodd" clip-rule="evenodd" d="M666.955 114.382C667.701 114.92 668.151 115.742 668.193 116.615C668.244 117.023 668.003 117.426 667.536 117.533C667.303 117.587 667.071 117.525 666.9 117.347C666.153 116.868 665.704 115.987 665.662 115.114C665.611 114.706 665.851 114.304 666.319 114.196C666.494 114.141 666.783 114.263 666.955 114.382ZM670.577 116.601C671.323 117.138 671.773 117.96 671.815 118.833C671.866 119.241 671.626 119.644 671.217 119.753C670.983 119.807 670.752 119.744 670.523 119.565C669.775 119.086 669.327 118.206 669.284 117.333C669.234 116.925 669.474 116.522 669.941 116.415C670.117 116.36 670.406 116.423 670.577 116.601ZM674.201 118.761C674.947 119.298 675.397 120.121 675.439 120.994C675.489 121.402 675.249 121.804 674.782 121.912C674.549 121.966 674.317 121.903 674.146 121.726C673.399 121.247 672.95 120.366 672.908 119.493C672.857 119.085 673.097 118.683 673.565 118.575C673.74 118.52 674.03 118.583 674.201 118.761Z" fill="white"/>
<defs>
<linearGradient id="paint0_linear_9_35921" x1="780.966" y1="970.531" x2="780.966" y2="503.95" gradientUnits="userSpaceOnUse">
<stop stop-color="white" stop-opacity="0"/>
<stop offset="1" stop-color="white"/>
</linearGradient>
<linearGradient id="paint1_linear_9_35921" x1="639.724" y1="1050.08" x2="639.724" y2="188.816" gradientUnits="userSpaceOnUse">
<stop stop-color="white" stop-opacity="0"/>
<stop offset="1" stop-color="#E0E7FD"/>
</linearGradient>
<linearGradient id="paint2_linear_9_35921" x1="1286.47" y1="816.742" x2="1286.47" y2="350.72" gradientUnits="userSpaceOnUse">
<stop stop-color="white" stop-opacity="0"/>
<stop offset="1" stop-color="white"/>
</linearGradient>
<linearGradient id="paint3_linear_9_35921" x1="1215.84" y1="896.126" x2="1215.84" y2="34.8986" gradientUnits="userSpaceOnUse">
<stop stop-color="white" stop-opacity="0"/>
<stop offset="1" stop-color="#E0E7FD"/>
</linearGradient>
<linearGradient id="paint4_linear_9_35921" x1="1404.69" y1="816.332" x2="1404.69" y2="350.312" gradientUnits="userSpaceOnUse">
<stop stop-color="white" stop-opacity="0"/>
<stop offset="1" stop-color="white"/>
</linearGradient>
<linearGradient id="paint5_linear_9_35921" x1="1334.07" y1="896.286" x2="1334.07" y2="35.0633" gradientUnits="userSpaceOnUse">
<stop stop-color="white" stop-opacity="0"/>
<stop offset="1" stop-color="#E0E7FD"/>
</linearGradient>
<linearGradient id="paint6_linear_9_35921" x1="153.532" y1="880.637" x2="153.532" y2="19.4093" gradientUnits="userSpaceOnUse">
<stop stop-color="white" stop-opacity="0"/>
<stop offset="1" stop-color="#E0E7FD"/>
</linearGradient>
<linearGradient id="paint7_linear_9_35921" x1="224.155" y1="801.253" x2="224.155" y2="335.23" gradientUnits="userSpaceOnUse">
<stop stop-color="white" stop-opacity="0"/>
<stop offset="1" stop-color="white"/>
</linearGradient>
<linearGradient id="paint8_linear_9_35921" x1="35.3113" y1="880.797" x2="35.3113" y2="19.575" gradientUnits="userSpaceOnUse">
<stop stop-color="white" stop-opacity="0"/>
<stop offset="1" stop-color="#E0E7FD"/>
</linearGradient>
<linearGradient id="paint9_linear_9_35921" x1="105.936" y1="800.843" x2="105.936" y2="334.824" gradientUnits="userSpaceOnUse">
<stop stop-color="white" stop-opacity="0"/>
<stop offset="1" stop-color="white"/>
</linearGradient>
<linearGradient id="paint10_linear_9_35921" x1="1078.08" y1="776.235" x2="1078.08" y2="310.447" gradientUnits="userSpaceOnUse">
<stop stop-color="white" stop-opacity="0"/>
<stop offset="1" stop-color="white"/>
</linearGradient>
<linearGradient id="paint11_linear_9_35921" x1="936.834" y1="855.76" x2="936.834" y2="-5.37994" gradientUnits="userSpaceOnUse">
<stop stop-color="white" stop-opacity="0"/>
<stop offset="1" stop-color="#E0E7FD"/>
</linearGradient>
<linearGradient id="paint12_linear_9_35921" x1="483.865" y1="776.237" x2="483.865" y2="309.951" gradientUnits="userSpaceOnUse">
<stop stop-color="white" stop-opacity="0"/>
<stop offset="1" stop-color="white"/>
</linearGradient>
<linearGradient id="paint13_linear_9_35921" x1="342.622" y1="855.76" x2="342.622" y2="-5.37994" gradientUnits="userSpaceOnUse">
<stop stop-color="white" stop-opacity="0"/>
<stop offset="1" stop-color="#E0E7FD"/>
</linearGradient>
<linearGradient id="paint14_linear_9_35921" x1="760.276" y1="180.925" x2="660.293" y2="179.078" gradientUnits="userSpaceOnUse">
<stop offset="0.01" stop-color="#3F4B75"/>
<stop offset="1" stop-color="#636F99"/>
</linearGradient>
</defs>
</svg>
